X: 49
T: HEN'S MARCH
S: Colin Nicholson, Cullivoe
R: march
B: Haand me doon da fiddle, 1979
Z: 2012 John Chambers <jc:trillian.mit.edu>
M: C
L: 1/8
K: D
%%slurgraces
|:\
{ABc} d2 A2 de f(ug | f<a) gf [e3A3] (uA |\
d3)(ve Tf3)(uf | g2fg) v{f}a3z |
va>gf<a g>fe<g | Tf>ed>f A3(uA |\
d)>fe>g f<ag<f | {f}[e4A4] d4 :|
|:\
uk.[A2A2] uk.[c2A2] uk.[A2A2] uk.[c2A2] | uA2 uA>v[cG] {gf}ve2 uf2 |\
kd2 {g}u[f2d2] ukd2 {g}uk[f2d2] | ud2 udve Tvf2 ua2 |
ud2 ud>v[fd] vT[g2B2] u[b2B2] | ud2 ud>ve vTf2 ua2 |\
ud2 ud>v[fc] {a}vT[g2B2] u[b2B2] | ud2ud>ve vTf2 ua2 |
a>gf<a g>fe<g | Tf>ed<f A3(A |\
d)>(.f.e)>g f<ag<f |1 {gf}[e4A4] d4 :|2 {gf}.e2z2 [d2F2A,2]z2 |]
%%begintext align
Dis t\"un was wan dat was aye spoken aboot whin I wis young bit I
never heard onybody playin him.  When I wis startin' to read
music, Muckle Willie Thomson o' Tanook gave me a loan o' some
manuscripts an dis t\"un wis amang dem.  I tochtna muckle o' him
whan I tried him ower first bit efer I sat an watched a hen fir
a while I began ta get da wye o' it.  Later on whin I met up wi
Peerie Willie Johnson an we played him tigedder on the Children's
Hur in 1948, he became very popular.

If du's gaen ta get da right clang o' da hen, du'll hae to follow
da fingerings an bowings as marked.  Mind du disna play him ower
fast cause a hen aye took her time whin sh\"u scratched ida midden.
%%endtext

%%sep 2 1 500
%%sep 1 1 500

